ressources/icons/view-preview.svg

<svg height="16" viewBox="0 0 16 16" width="16" xmlns="http://www.w3.org/2000/svg"><path d="m2 2c-1 0-1 1-1 1v10c0 1 1 1 1 1h12s1 0 1-1v-10c0-1-1-1-1-1zm3.5 4.5625 3.3125 3.75 2.125-2.0625 2.0625 2.0625v1.6875h-10v-2.5z" fill="#404040"/></svg>

<svg xmlns="http://www.w3.org/2000/svg" width="16" height="16" viewBox="0 0 16 16">
 <defs>
  <style id="current-color-scheme" type="text/css">
   .ColorScheme-Text { color:#404040; } .ColorScheme-Highlight { color:#5294e2; }
  </style>
 </defs>
 <path style="fill:currentColor" class="ColorScheme-Text" d="M 2 2 C 1 2 1 3 1 3 L 1 13 C 1 14 2 14 2 14 L 14 14 C 14 14 15 14 15 13 L 15 3 C 15 2 14 2 14 2 L 2 2 z M 5.5 6.5625 L 8.8125 10.3125 L 10.9375 8.25 L 13 10.3125 L 13 12 L 3 12 L 3 9.5 L 5.5 6.5625 z"/>
</svg>
